X: 13
T: Morrison's
Z: jdogbishop96
S: https://thesession.org/tunes/71#setting48134
R: jig
M: 6/8
L: 1/8
K: Edor
|:"Em"E2 E BEB|EBE "D"AFD|"Em"EDE B3|"G"dcB "D"AFD|
"Em"E3 B3|EBE "D"AFD|"G"G3 FGA|"D"BAG FED:|
"Em"Bee fee|aee "D"fed|"Em"Bee fee|"D"fag fed|
"Em"Bee fee|aee "D"fef|"G"gfe d2A|"D"BAG FED|
"Em"Bee fee|aee "D"fed|"Em"Bee fee|"D"faf def|
"G"g2g gfe|"D"def "G"g2d|"D"edc d2A|BAG FED|

